X: 1
T: Miss Nancy Frowns
C: Thompson (18C)
N: Originally 16 bars
B: RSCDS 14-5
M: 6/8
L: 1/8
K: G
D \
| "G"GAG "C"G2e | "G"dBG "D7"AFD |  "G"GAG "C"G2e |  "G"dBG "D7"A2D \
| "G"GAG "C"G2e | "G"dBG "D7"AFD |  "G"GAG "C"G2e | "D7"dAF  "G"G2 :|
|: D \
| "G"GAB    d2g |    dBG "D7"AFD |  "G"GAB    d2g |     dBG "D7"A2a \
| "G"bag "D"agf | "C"egc  "G"BAG | "Am"ABA "D"FED | "D7"EAF  "G"G2 :|
